X:1
T:L-O-V-E
C:1964 - Bert Kaempfert / Milt Gabler
Z:www.realbook.site
L:1/4
M:4/4
I:linebreak $
K:G
V:1 treble nm=" " snm=" "
V:1
|:"G" G3 F |"Gmaj7" F E ^D E |"Am7" G3 F |"D7" F4 |$"D7" F3 E | E D ^C D |"Gmaj7" F3 E |"G6" E4 | %8
"G7" B3 A | A G F G |1$"Cmaj7" B3 A | A G F G |"A7" B3 A | A G F G |"Dsus4" B A A G | %15
"D7" G F E F :|2$"Cmaj7" B A A G ||"Cdim7" G F E F |"G6" G3 F |"Am7" F E"D7" F A |"G" G4- | %21
 G z z2 |] %22

